!!!OTL: Witjungfr&auml;uelein (2-19) S. 63
!!!id: P0892
**kern
*clefG2
*k[f#]
*e:
{4g
=1
4f#
8g
8f#
8e
8e
8f#
8e
=2
8d
8d
4d}
4r
=3
{8d
8d
=4
4g
8g
8g
8b
8b
8b
8a
=5
4.b
8cc
4b}
=6
{8a
8a
=7
8g
8f#
4e
8d#
8e
4f#
=8
4e}
2r
==
*-
!!!minrhy: 8
!!!meters: 4/4 ]  ZZ[3
!!!cut: Witjungfr&auml;uelein (2-19) S. 63
!!!reg: Lothringen
!!!trd: PINCK, Louis: Verklingende Weisen, Bd 2, Metz 1928
!!!rhy1: X_  X_XXXXXX  XXX_0_
!!!rhy2: XX  X_XXXXXX  X_.XX_
!!!key: P0892  08  E 4/4 ]  ZZ[3
!!!mod: ACHTTONSKALA MELODISCH MOLL OHNE 6]  AMBITUS[7b
!!!kad: -7b51
!!!akz: 21-7b_3b555_3b-71_
!!!fot: 'a__b__c__
!!!for: 'a__b__c__
!!!fok: '\__/__\__
!! PHRAS[AUFTAKTIG]
!!!fkt: Tod, Trauer
!! LOTH VKL
!! PR[11] 2K[2] 2G[7] 3K[11] 3G[7] 4A[4] 4Ü[0] 5A[0] 6K[0] 6G[0]
!! 7K[0] 7G[0] 8A[0] MEHR[0] SI[31] ABS[45] SR[9] SP[22]
!! ST[16] 2k[13] 2g[40] 3k[4] 3g[0] 4d[0] 4ü[0] 5d[0] 6k[0] 6g[0]
!! 7k[0] 7g[0] 8d[0] mehr[0] si[58] dm[-27] sr[53] sp[4]
!! 1F[37] 2F[45] 3F[14] 4F[0] LF[0] 2P[4] 3P[0] 4P[0] TRI[0] DF[4] AB[49]
!! TF[0] U3K[0] U3[0] U4[0] U4Ü[0] U5[0] U6K[0] U6[0] U7K[0] U7[4]
!! N1[13] N2K[0] N2[22] N3K[0] N3[30] N4[13] N4Ü[0] N5[13] N6K[0] N6[4]
!!!n7k: 0] N7[0] O1[0] O2K[0] O2[0] O3K[0] O3[0] HÖ[0
!!!RNB: symbol: &auml;      = a umlaut  (UTF-8: Å„)
